X:196
T:Teviot Bridge
C:Joe Buchanan's Scottish Tome - Page 277.1
I:277 1
Z:Carl Allison
R:Jig
L:1/8
M:6/8
K:A
f | ecA E2 A | F2 A E2 E | EFE EAc | d2 c B2 f |
ecA E2 A | F2 A E2 A | def ecA | B3 A2 :|
f | ecA Ace | fgf fga | ecA AcA | BGE E2 f |
ecA Ace | agf edc | dfa ecA | B3 A :|

